Newaita-dark/apps/22/python.svg

<svg height="22pt" viewBox="0 0 22 22" width="22pt" xmlns="http://www.w3.org/2000/svg" xmlns:xlink="http://www.w3.org/1999/xlink"><linearGradient id="a"><stop offset="0" stop-opacity=".313726"/><stop offset=".222222" stop-opacity=".27451"/><stop offset="1" stop-opacity="0"/></linearGradient><radialGradient id="b" cx="450.908936" cy="189.579361" gradientTransform="matrix(.00000012 -.0470015 -.0966889 -.00000006 29.472676 40.779412)" gradientUnits="userSpaceOnUse" r="21.166656" xlink:href="#a"/><radialGradient id="c" cx="450.908936" cy="189.579361" gradientTransform="matrix(-.00000012 .0470015 .0966889 .00000006 -7.642466 -2.005367)" gradientUnits="userSpaceOnUse" r="21.166656" xlink:href="#a"/><radialGradient id="d" cx="450.908936" cy="189.579361" gradientTransform="matrix(-.00000012 -.0470015 .0966889 -.00000006 -7.642466 40.779412)" gradientUnits="userSpaceOnUse" r="21.166656" xlink:href="#a"/><radialGradient id="e" cx="450.908936" cy="189.579361" gradientTransform="matrix(.00000012 .0470015 -.0966889 .00000006 29.472674 -2.005367)" gradientUnits="userSpaceOnUse" r="21.166656" xlink:href="#a"/><linearGradient id="f" gradientTransform="matrix(.00918504 0 0 .0376012 8.569952 10.607141)" gradientUnits="userSpaceOnUse" x1="255.323059" x2="255.323044" y1="233.5" y2="254.666656"><stop offset="0" stop-opacity=".27451"/><stop offset="1" stop-opacity="0"/></linearGradient><linearGradient id="g" gradientUnits="userSpaceOnUse" x1="11.36991358338" x2="11.36991358338" y1="19.27333515" y2="6.5390325073"><stop offset="0" stop-color="#ffa726"/><stop offset="1" stop-color="#ffb74d"/></linearGradient><linearGradient id="h" gradientUnits="userSpaceOnUse" x1="8.186328" x2="8.186328" y1="14.72536401286" y2="1.99107548985"><stop offset="0" stop-color="#42a5f5"/><stop offset="1" stop-color="#64b5f6"/></linearGradient><path d="m11.371094 19.386719h1.816406v-.796875h-1.816406zm0 0" fill="url(#b)"/><path d="m10.460938 19.386719h-1.820313v.796875h1.820313zm0 0" fill="url(#c)"/><path d="m10.460938 19.386719h-1.820313v-.796875h1.820313zm0 0" fill="url(#d)"/><path d="m11.371094 19.386719h1.816406v.796875h-1.816406zm0 0" fill="url(#e)"/><path d="m10.460938 19.1875h.910156v.996094h-.910156zm0 0" fill="url(#f)"/><path d="m9.550781 2.617188c-.253906 0-.453125.203124-.453125.453124 0 .039063.003906.078126.011719.113282.050781-.195313.230469-.339844.441406-.339844.210938 0 .390625.144531.441407.339844.007812-.035156.011718-.074219.011718-.113282 0-.25-.203125-.453124-.453125-.453124zm-2.601562 2.726562c-.015625.078125-.03125.152344-.046875.230469h4.011718v-.230469zm8.058593 3.640625c0 .753906-.609374 1.363281-1.363281 1.363281h-5.457031c-.757812 0-1.367188.609375-1.367188 1.363282v.230468c0-.757812.609376-1.367187 1.367188-1.367187h5.457031c.753907 0 1.363281-.605469 1.363281-1.363281zm-12.730468 1.476563c-.003906.039062-.003906.078124-.003906.113281 0 2.269531 2.027343 4.09375 4.546874 4.09375v-.226563c-2.476562 0-4.476562-1.765625-4.542968-3.980468zm0 0" fill-opacity=".235294"/><path d="m10.914062 19.273438c1.988282 0 3.636719-1.558594 4.011719-3.636719h-4.011719v-.910157h4.09375c2.519532 0 4.546876-1.828124 4.546876-4.09375 0-2.269531-2.027344-4.09375-4.546876-4.09375v2.730469c0 .753907-.609374 1.363281-1.363281 1.363281h-5.457031c-.757812 0-1.367188.609376-1.367188 1.363282v2.730468c0 2.519532 1.828126 4.546876 4.09375 4.546876zm1.367188-.910157c-.253906 0-.457031-.203125-.457031-.453125 0-.253906.203125-.457031.457031-.457031.25 0 .453125.203125.453125.457031 0 .25-.203125.453125-.453125.453125zm0 0" fill="url(#g)"/><path d="m6.820312 9.269531v3.183594c0-.757813.609376-1.367187 1.367188-1.367187h5.457031c.753907 0 1.363281-.609376 1.363281-1.363282v-.453125zm0 0" fill-opacity=".235294"/><path d="m10.914062 1.992188c-1.984374 0-3.632812 1.554687-4.011718 3.636718h4.011718v.910156h-2.726562-.003906-1.363282c-2.519531 0-4.546874 1.824219-4.546874 4.09375 0 2.265626 2.027343 4.09375 4.546874 4.09375v-2.730468c0-.753906.609376-1.363282 1.367188-1.363282h5.457031c.753907 0 1.363281-.609374 1.363281-1.363281v-2.730469c0-2.519531-1.824218-4.546874-4.09375-4.546874zm-1.363281.910156c.25 0 .453125.199218.453125.453125 0 .25-.203125.453125-.453125.453125-.253906 0-.453125-.203125-.453125-.453125 0-.253907.199219-.453125.453125-.453125zm0 0" fill="url(#h)"/><path d="m10.914062 2.046875c-1.984374 0-3.632812 1.558594-4.011718 3.640625h.046875c.453125-1.96875 2.050781-3.414062 3.964843-3.414062 2.269532 0 4.09375 2.03125 4.09375 4.550781v-.226563c0-2.519531-1.824218-4.550781-4.09375-4.550781zm-1.804687 1.480469c-.007813.035156-.011719.074218-.011719.113281 0 .25.199219.453125.453125.453125.25 0 .453125-.203125.453125-.453125 0-.039063-.003906-.078125-.011718-.113281-.050782.195312-.230469.339844-.441407.339844-.210937 0-.390625-.144532-.441406-.339844zm-.921875 3.070312h-.003906-1.363282c-2.519531 0-4.546874 1.824219-4.546874 4.089844 0 .039062 0 .078125.003906.117188.066406-2.214844 2.066406-3.980469 4.542968-3.980469h1.363282.003906 2.726562v-.226563zm0 0" fill="#fff" fill-opacity=".392157"/><path d="m15.007812 6.597656v.226563c2.476563 0 4.480469 1.765625 4.546876 3.980469 0-.039063 0-.078126 0-.117188 0-2.265625-2.027344-4.089844-4.546876-4.089844zm-4.09375 9.09375v.226563h3.964844c.019532-.074219.035156-.148438.046875-.226563zm.925782 2.386719c-.011719.039063-.015625.074219-.015625.113281 0 .253906.203125.457032.457031.457032.25 0 .453125-.203126.453125-.457032 0-.039062-.003906-.074218-.015625-.113281-.050781.199219-.226562.34375-.4375.34375-.214844 0-.390625-.144531-.441406-.34375zm0 0" fill="#fff" fill-opacity=".392157"/><path d="m19.554688 10.460938c-.066407 2.214843-2.070313 3.980468-4.546876 3.980468h-4.09375v.226563h4.09375c2.519532 0 4.546876-1.824219 4.546876-4.09375 0-.035157 0-.074219 0-.113281zm-12.734376 3.980468v.226563c0 2.519531 1.828126 4.546875 4.09375 4.546875 1.988282 0 3.636719-1.554688 4.011719-3.636719h-.046875c-.449218 1.964844-2.050781 3.410156-3.964844 3.410156-2.265624 0-4.09375-2.027343-4.09375-4.546875zm5.460938 2.726563c-.253906 0-.457031.203125-.457031.457031 0 .039062.003906.078125.015625.113281.050781-.195312.226562-.339843.441406-.339843.210938 0 .386719.144531.4375.339843.011719-.035156.015625-.074219.015625-.113281 0-.253906-.203125-.457031-.453125-.457031zm0 0" fill-opacity=".235294"/><path d="m10.914062 1.925781c-2.019531 0-3.691406 1.585938-4.074218 3.691407-.003906.019531 0 .039062.015625.054687.011719.011719.027343.023437.046875.023437h3.949218v.777344h-2.664062c-.003906 0-.003906 0-.003906 0h-1.363282c-2.550781 0-4.609374 1.851563-4.609374 4.160156 0 2.304688 2.058593 4.15625 4.609374 4.15625.039063 0 .066407-.027343.066407-.0625v-2.730468c0-.722656.578125-1.300782 1.300781-1.300782h5.457031c.789063 0 1.429688-.636718 1.429688-1.425781v-2.730469c0-2.550781-1.851563-4.613281-4.160157-4.613281zm0 .128907c2.230469 0 4.03125 1.996093 4.03125 4.484374v2.730469c0 .71875-.582031 1.296875-1.300781 1.296875h-5.457031c-.792969 0-1.429688.640625-1.429688 1.429688v2.664062c-2.457031-.03125-4.417968-1.816406-4.417968-4.027344 0-2.230468 1.992187-4.03125 4.480468-4.03125h1.363282.003906 2.726562c.035157 0 .066407-.027343.066407-.0625v-.910156c0-.035156-.03125-.0625-.066407-.0625h-3.933593c.398437-2.015625 2.003906-3.511718 3.933593-3.511718zm-1.363281.78125c-.285156 0-.519531.234374-.519531.519531 0 .285156.234375.519531.519531.519531.285157 0 .519531-.234375.519531-.519531 0-.285157-.234374-.519531-.519531-.519531zm0 .128906c.21875 0 .390625.171875.390625.390625s-.171875.390625-.390625.390625-.390625-.171875-.390625-.390625.171875-.390625.390625-.390625zm0 0" fill="#212121"/><path d="m15.007812 6.472656c-.035156 0-.0625.03125-.0625.066406v2.730469c0 .71875-.582031 1.296875-1.300781 1.296875h-5.457031c-.792969 0-1.429688.640625-1.429688 1.429688v2.730468c0 2.550782 1.851563 4.609376 4.15625 4.609376 2.023438 0 3.695313-1.582032 4.078126-3.691407 0-.015625-.003907-.035156-.015626-.050781-.011718-.015625-.03125-.023438-.050781-.023438h-3.945312v-.78125h2.664062s.003907 0 0 0h1.363281c2.550782 0 4.613282-1.851562 4.613282-4.15625 0-2.308593-2.0625-4.160156-4.613282-4.160156zm.066407.132813c2.457031.03125 4.417969 1.816406 4.417969 4.027343 0 2.230469-1.996094 4.027344-4.484376 4.027344h-4.09375c-.035156 0-.0625.03125-.0625.066406v.910157c0 .035156.027344.0625.0625.0625h3.933594c-.398437 2.015625-2.003906 3.507812-3.933594 3.507812-2.226562 0-4.027343-1.992187-4.027343-4.480469v-2.730468c0-.722656.578125-1.300782 1.300781-1.300782h5.457031c.789063 0 1.429688-.636718 1.429688-1.425781zm-2.792969 10.785156c-.289062 0-.519531.230469-.519531.519531 0 .285156.230469.519532.519531.519532.285156 0 .515625-.234376.515625-.519532 0-.289062-.230469-.519531-.515625-.519531zm0 .128906c.214844 0 .386719.171875.386719.390625 0 .214844-.171875.390625-.386719.390625-.21875 0-.390625-.175781-.390625-.390625 0-.21875.171875-.390625.390625-.390625zm0 0" fill="#212121"/><g fill="#fff" fill-opacity=".235294"><path d="m3.875 8.265625c.128906.078125.082031.402344-.105469.730469-.1875.324218-.445312.527344-.574219.453125-.132812-.074219-.085937-.402344.101563-.726563.1875-.328125.449219-.53125.578125-.457031zm0 0"/><path d="m8.632812 3.445312c.128907.078126.082032.402344-.105468.730469-.1875.324219-.445313.527344-.578125.453125-.128907-.074218-.082031-.402344.105469-.726562.1875-.328125.445312-.53125.578124-.457032zm0 0"/></g></svg>

<?xml version="1.0" encoding="UTF-8"?>
<svg xmlns="http://www.w3.org/2000/svg" xmlns:xlink="http://www.w3.org/1999/xlink" width="22pt" height="22pt" viewBox="0 0 22 22" version="1.1">
<defs>
<radialGradient id="radial0" gradientUnits="userSpaceOnUse" cx="450.908936" cy="189.579361" fx="450.908936" fy="189.579361" r="21.166656" gradientTransform="matrix(0.000000119742,-0.0470015,-0.0966889,-0.0000000610817,29.472676,40.779412)">
<stop offset="0" style="stop-color:rgb(0%,0%,0%);stop-opacity:0.313726;"/>
<stop offset="0.222222" style="stop-color:rgb(0%,0%,0%);stop-opacity:0.27451;"/>
<stop offset="1" style="stop-color:rgb(0%,0%,0%);stop-opacity:0;"/>
</radialGradient>
<radialGradient id="radial1" gradientUnits="userSpaceOnUse" cx="450.908936" cy="189.579361" fx="450.908936" fy="189.579361" r="21.166656" gradientTransform="matrix(-0.000000119742,0.0470015,0.0966889,0.0000000610817,-7.642466,-2.005367)">
<stop offset="0" style="stop-color:rgb(0%,0%,0%);stop-opacity:0.313726;"/>
<stop offset="0.222222" style="stop-color:rgb(0%,0%,0%);stop-opacity:0.27451;"/>
<stop offset="1" style="stop-color:rgb(0%,0%,0%);stop-opacity:0;"/>
</radialGradient>
<radialGradient id="radial2" gradientUnits="userSpaceOnUse" cx="450.908936" cy="189.579361" fx="450.908936" fy="189.579361" r="21.166656" gradientTransform="matrix(-0.000000119742,-0.0470015,0.0966889,-0.0000000610817,-7.642466,40.779412)">
<stop offset="0" style="stop-color:rgb(0%,0%,0%);stop-opacity:0.313726;"/>
<stop offset="0.222222" style="stop-color:rgb(0%,0%,0%);stop-opacity:0.27451;"/>
<stop offset="1" style="stop-color:rgb(0%,0%,0%);stop-opacity:0;"/>
</radialGradient>
<radialGradient id="radial3" gradientUnits="userSpaceOnUse" cx="450.908936" cy="189.579361" fx="450.908936" fy="189.579361" r="21.166656" gradientTransform="matrix(0.000000119742,0.0470015,-0.0966889,0.0000000610817,29.472674,-2.005367)">
<stop offset="0" style="stop-color:rgb(0%,0%,0%);stop-opacity:0.313726;"/>
<stop offset="0.222222" style="stop-color:rgb(0%,0%,0%);stop-opacity:0.27451;"/>
<stop offset="1" style="stop-color:rgb(0%,0%,0%);stop-opacity:0;"/>
</radialGradient>
<linearGradient id="linear0" gradientUnits="userSpaceOnUse" x1="255.323059" y1="233.5" x2="255.323044" y2="254.666656" gradientTransform="matrix(0.00918504,0,0,0.0376012,8.569952,10.607141)">
<stop offset="0" style="stop-color:rgb(0%,0%,0%);stop-opacity:0.27451;"/>
<stop offset="1" style="stop-color:rgb(0%,0%,0%);stop-opacity:0;"/>
</linearGradient>
<linearGradient id="linear1" gradientUnits="userSpaceOnUse" x1="264.583344" y1="233.5" x2="264.583344" y2="-62.833332" gradientTransform="matrix(0.0429729,0,0,0.0429729,0,9.239163)">
<stop offset="0" style="stop-color:rgb(100%,65.490198%,14.901961%);stop-opacity:1;"/>
<stop offset="1" style="stop-color:rgb(100%,71.764708%,30.19608%);stop-opacity:1;"/>
</linearGradient>
<linearGradient id="linear2" gradientUnits="userSpaceOnUse" x1="720" y1="1295.118164" x2="720" y2="175.118118" gradientTransform="matrix(0.0113699,0,0,0.0113699,0,0)">
<stop offset="0" style="stop-color:rgb(25.882354%,64.705884%,96.078432%);stop-opacity:1;"/>
<stop offset="1" style="stop-color:rgb(39.215687%,70.980394%,96.470588%);stop-opacity:1;"/>
</linearGradient>
</defs>
<g id="surface1">
<path style=" stroke:none;fill-rule:nonzero;fill:url(#radial0);" d="M 11.371094 19.386719 L 13.1875 19.386719 L 13.1875 18.589844 L 11.371094 18.589844 Z M 11.371094 19.386719 "/>
<path style=" stroke:none;fill-rule:nonzero;fill:url(#radial1);" d="M 10.460938 19.386719 L 8.640625 19.386719 L 8.640625 20.183594 L 10.460938 20.183594 Z M 10.460938 19.386719 "/>
<path style=" stroke:none;fill-rule:nonzero;fill:url(#radial2);" d="M 10.460938 19.386719 L 8.640625 19.386719 L 8.640625 18.589844 L 10.460938 18.589844 Z M 10.460938 19.386719 "/>
<path style=" stroke:none;fill-rule:nonzero;fill:url(#radial3);" d="M 11.371094 19.386719 L 13.1875 19.386719 L 13.1875 20.183594 L 11.371094 20.183594 Z M 11.371094 19.386719 "/>
<path style=" stroke:none;fill-rule:nonzero;fill:url(#linear0);" d="M 10.460938 19.1875 L 11.371094 19.1875 L 11.371094 20.183594 L 10.460938 20.183594 Z M 10.460938 19.1875 "/>
<path style=" stroke:none;fill-rule:nonzero;fill:rgb(0%,0%,0%);fill-opacity:0.235294;" d="M 9.550781 2.617188 C 9.296875 2.617188 9.097656 2.820312 9.097656 3.070312 C 9.097656 3.109375 9.101562 3.148438 9.109375 3.183594 C 9.160156 2.988281 9.339844 2.84375 9.550781 2.84375 C 9.761719 2.84375 9.941406 2.988281 9.992188 3.183594 C 10 3.148438 10.003906 3.109375 10.003906 3.070312 C 10.003906 2.820312 9.800781 2.617188 9.550781 2.617188 Z M 6.949219 5.34375 C 6.933594 5.421875 6.917969 5.496094 6.902344 5.574219 L 10.914062 5.574219 L 10.914062 5.34375 Z M 15.007812 8.984375 C 15.007812 9.738281 14.398438 10.347656 13.644531 10.347656 L 8.1875 10.347656 C 7.429688 10.347656 6.820312 10.957031 6.820312 11.710938 L 6.820312 11.941406 C 6.820312 11.183594 7.429688 10.574219 8.1875 10.574219 L 13.644531 10.574219 C 14.398438 10.574219 15.007812 9.96875 15.007812 9.210938 Z M 2.277344 10.460938 C 2.273438 10.5 2.273438 10.539062 2.273438 10.574219 C 2.273438 12.84375 4.300781 14.667969 6.820312 14.667969 L 6.820312 14.441406 C 4.34375 14.441406 2.34375 12.675781 2.277344 10.460938 Z M 2.277344 10.460938 "/>
<path style=" stroke:none;fill-rule:nonzero;fill:url(#linear1);" d="M 10.914062 19.273438 C 12.902344 19.273438 14.550781 17.714844 14.925781 15.636719 L 10.914062 15.636719 L 10.914062 14.726562 L 15.007812 14.726562 C 17.527344 14.726562 19.554688 12.898438 19.554688 10.632812 C 19.554688 8.363281 17.527344 6.539062 15.007812 6.539062 L 15.007812 9.269531 C 15.007812 10.023438 14.398438 10.632812 13.644531 10.632812 L 8.1875 10.632812 C 7.429688 10.632812 6.820312 11.242188 6.820312 11.996094 L 6.820312 14.726562 C 6.820312 17.246094 8.648438 19.273438 10.914062 19.273438 Z M 12.28125 18.363281 C 12.027344 18.363281 11.824219 18.160156 11.824219 17.910156 C 11.824219 17.65625 12.027344 17.453125 12.28125 17.453125 C 12.53125 17.453125 12.734375 17.65625 12.734375 17.910156 C 12.734375 18.160156 12.53125 18.363281 12.28125 18.363281 Z M 12.28125 18.363281 "/>
<path style=" stroke:none;fill-rule:nonzero;fill:rgb(0%,0%,0%);fill-opacity:0.235294;" d="M 6.820312 9.269531 L 6.820312 12.453125 C 6.820312 11.695312 7.429688 11.085938 8.1875 11.085938 L 13.644531 11.085938 C 14.398438 11.085938 15.007812 10.476562 15.007812 9.722656 L 15.007812 9.269531 Z M 6.820312 9.269531 "/>
<path style=" stroke:none;fill-rule:nonzero;fill:url(#linear2);" d="M 10.914062 1.992188 C 8.929688 1.992188 7.28125 3.546875 6.902344 5.628906 L 10.914062 5.628906 L 10.914062 6.539062 L 8.1875 6.539062 C 8.1875 6.539062 8.183594 6.539062 8.183594 6.539062 L 6.820312 6.539062 C 4.300781 6.539062 2.273438 8.363281 2.273438 10.632812 C 2.273438 12.898438 4.300781 14.726562 6.820312 14.726562 L 6.820312 11.996094 C 6.820312 11.242188 7.429688 10.632812 8.1875 10.632812 L 13.644531 10.632812 C 14.398438 10.632812 15.007812 10.023438 15.007812 9.269531 L 15.007812 6.539062 C 15.007812 4.019531 13.183594 1.992188 10.914062 1.992188 Z M 9.550781 2.902344 C 9.800781 2.902344 10.003906 3.101562 10.003906 3.355469 C 10.003906 3.605469 9.800781 3.808594 9.550781 3.808594 C 9.296875 3.808594 9.097656 3.605469 9.097656 3.355469 C 9.097656 3.101562 9.296875 2.902344 9.550781 2.902344 Z M 9.550781 2.902344 "/>
<path style=" stroke:none;fill-rule:nonzero;fill:rgb(100%,100%,100%);fill-opacity:0.392157;" d="M 10.914062 2.046875 C 8.929688 2.046875 7.28125 3.605469 6.902344 5.6875 L 6.949219 5.6875 C 7.402344 3.71875 9 2.273438 10.914062 2.273438 C 13.183594 2.273438 15.007812 4.304688 15.007812 6.824219 L 15.007812 6.597656 C 15.007812 4.078125 13.183594 2.046875 10.914062 2.046875 Z M 9.109375 3.527344 C 9.101562 3.5625 9.097656 3.601562 9.097656 3.640625 C 9.097656 3.890625 9.296875 4.09375 9.550781 4.09375 C 9.800781 4.09375 10.003906 3.890625 10.003906 3.640625 C 10.003906 3.601562 10 3.5625 9.992188 3.527344 C 9.941406 3.722656 9.761719 3.867188 9.550781 3.867188 C 9.339844 3.867188 9.160156 3.722656 9.109375 3.527344 Z M 8.1875 6.597656 C 8.1875 6.597656 8.183594 6.597656 8.183594 6.597656 L 6.820312 6.597656 C 4.300781 6.597656 2.273438 8.421875 2.273438 10.6875 C 2.273438 10.726562 2.273438 10.765625 2.277344 10.804688 C 2.34375 8.589844 4.34375 6.824219 6.820312 6.824219 L 8.183594 6.824219 C 8.183594 6.824219 8.1875 6.824219 8.1875 6.824219 L 10.914062 6.824219 L 10.914062 6.597656 Z M 8.1875 6.597656 "/>
<path style=" stroke:none;fill-rule:nonzero;fill:rgb(100%,100%,100%);fill-opacity:0.392157;" d="M 15.007812 6.597656 L 15.007812 6.824219 C 17.484375 6.824219 19.488281 8.589844 19.554688 10.804688 C 19.554688 10.765625 19.554688 10.726562 19.554688 10.6875 C 19.554688 8.421875 17.527344 6.597656 15.007812 6.597656 Z M 10.914062 15.691406 L 10.914062 15.917969 L 14.878906 15.917969 C 14.898438 15.84375 14.914062 15.769531 14.925781 15.691406 Z M 11.839844 18.078125 C 11.828125 18.117188 11.824219 18.152344 11.824219 18.191406 C 11.824219 18.445312 12.027344 18.648438 12.28125 18.648438 C 12.53125 18.648438 12.734375 18.445312 12.734375 18.191406 C 12.734375 18.152344 12.730469 18.117188 12.71875 18.078125 C 12.667969 18.277344 12.492188 18.421875 12.28125 18.421875 C 12.066406 18.421875 11.890625 18.277344 11.839844 18.078125 Z M 11.839844 18.078125 "/>
<path style=" stroke:none;fill-rule:nonzero;fill:rgb(0%,0%,0%);fill-opacity:0.235294;" d="M 19.554688 10.460938 C 19.488281 12.675781 17.484375 14.441406 15.007812 14.441406 L 10.914062 14.441406 L 10.914062 14.667969 L 15.007812 14.667969 C 17.527344 14.667969 19.554688 12.84375 19.554688 10.574219 C 19.554688 10.539062 19.554688 10.5 19.554688 10.460938 Z M 6.820312 14.441406 L 6.820312 14.667969 C 6.820312 17.1875 8.648438 19.214844 10.914062 19.214844 C 12.902344 19.214844 14.550781 17.660156 14.925781 15.578125 L 14.878906 15.578125 C 14.429688 17.542969 12.828125 18.988281 10.914062 18.988281 C 8.648438 18.988281 6.820312 16.960938 6.820312 14.441406 Z M 12.28125 17.167969 C 12.027344 17.167969 11.824219 17.371094 11.824219 17.625 C 11.824219 17.664062 11.828125 17.703125 11.839844 17.738281 C 11.890625 17.542969 12.066406 17.398438 12.28125 17.398438 C 12.492188 17.398438 12.667969 17.542969 12.71875 17.738281 C 12.730469 17.703125 12.734375 17.664062 12.734375 17.625 C 12.734375 17.371094 12.53125 17.167969 12.28125 17.167969 Z M 12.28125 17.167969 "/>
<path style=" stroke:none;fill-rule:nonzero;fill:rgb(12.941177%,12.941177%,12.941177%);fill-opacity:1;" d="M 10.914062 1.925781 C 8.894531 1.925781 7.222656 3.511719 6.839844 5.617188 C 6.835938 5.636719 6.839844 5.65625 6.855469 5.671875 C 6.867188 5.683594 6.882812 5.695312 6.902344 5.695312 L 10.851562 5.695312 L 10.851562 6.472656 L 8.1875 6.472656 C 8.183594 6.472656 8.183594 6.472656 8.183594 6.472656 L 6.820312 6.472656 C 4.269531 6.472656 2.210938 8.324219 2.210938 10.632812 C 2.210938 12.9375 4.269531 14.789062 6.820312 14.789062 C 6.859375 14.789062 6.886719 14.761719 6.886719 14.726562 L 6.886719 11.996094 C 6.886719 11.273438 7.464844 10.695312 8.1875 10.695312 L 13.644531 10.695312 C 14.433594 10.695312 15.074219 10.058594 15.074219 9.269531 L 15.074219 6.539062 C 15.074219 3.988281 13.222656 1.925781 10.914062 1.925781 Z M 10.914062 2.054688 C 13.144531 2.054688 14.945312 4.050781 14.945312 6.539062 L 14.945312 9.269531 C 14.945312 9.988281 14.363281 10.566406 13.644531 10.566406 L 8.1875 10.566406 C 7.394531 10.566406 6.757812 11.207031 6.757812 11.996094 L 6.757812 14.660156 C 4.300781 14.628906 2.339844 12.84375 2.339844 10.632812 C 2.339844 8.402344 4.332031 6.601562 6.820312 6.601562 L 8.183594 6.601562 C 8.1875 6.601562 8.1875 6.601562 8.1875 6.601562 L 10.914062 6.601562 C 10.949219 6.601562 10.980469 6.574219 10.980469 6.539062 L 10.980469 5.628906 C 10.980469 5.59375 10.949219 5.566406 10.914062 5.566406 L 6.980469 5.566406 C 7.378906 3.550781 8.984375 2.054688 10.914062 2.054688 Z M 9.550781 2.835938 C 9.265625 2.835938 9.03125 3.070312 9.03125 3.355469 C 9.03125 3.640625 9.265625 3.875 9.550781 3.875 C 9.835938 3.875 10.070312 3.640625 10.070312 3.355469 C 10.070312 3.070312 9.835938 2.835938 9.550781 2.835938 Z M 9.550781 2.964844 C 9.769531 2.964844 9.941406 3.136719 9.941406 3.355469 C 9.941406 3.574219 9.769531 3.746094 9.550781 3.746094 C 9.332031 3.746094 9.160156 3.574219 9.160156 3.355469 C 9.160156 3.136719 9.332031 2.964844 9.550781 2.964844 Z M 9.550781 2.964844 "/>
<path style=" stroke:none;fill-rule:nonzero;fill:rgb(12.941177%,12.941177%,12.941177%);fill-opacity:1;" d="M 15.007812 6.472656 C 14.972656 6.472656 14.945312 6.503906 14.945312 6.539062 L 14.945312 9.269531 C 14.945312 9.988281 14.363281 10.566406 13.644531 10.566406 L 8.1875 10.566406 C 7.394531 10.566406 6.757812 11.207031 6.757812 11.996094 L 6.757812 14.726562 C 6.757812 17.277344 8.609375 19.335938 10.914062 19.335938 C 12.9375 19.335938 14.609375 17.753906 14.992188 15.644531 C 14.992188 15.628906 14.988281 15.609375 14.976562 15.59375 C 14.964844 15.578125 14.945312 15.570312 14.925781 15.570312 L 10.980469 15.570312 L 10.980469 14.789062 L 13.644531 14.789062 C 13.644531 14.789062 13.648438 14.789062 13.644531 14.789062 L 15.007812 14.789062 C 17.558594 14.789062 19.621094 12.9375 19.621094 10.632812 C 19.621094 8.324219 17.558594 6.472656 15.007812 6.472656 Z M 15.074219 6.605469 C 17.53125 6.636719 19.492188 8.421875 19.492188 10.632812 C 19.492188 12.863281 17.496094 14.660156 15.007812 14.660156 L 10.914062 14.660156 C 10.878906 14.660156 10.851562 14.691406 10.851562 14.726562 L 10.851562 15.636719 C 10.851562 15.671875 10.878906 15.699219 10.914062 15.699219 L 14.847656 15.699219 C 14.449219 17.714844 12.84375 19.207031 10.914062 19.207031 C 8.6875 19.207031 6.886719 17.214844 6.886719 14.726562 L 6.886719 11.996094 C 6.886719 11.273438 7.464844 10.695312 8.1875 10.695312 L 13.644531 10.695312 C 14.433594 10.695312 15.074219 10.058594 15.074219 9.269531 Z M 12.28125 17.390625 C 11.992188 17.390625 11.761719 17.621094 11.761719 17.910156 C 11.761719 18.195312 11.992188 18.429688 12.28125 18.429688 C 12.566406 18.429688 12.796875 18.195312 12.796875 17.910156 C 12.796875 17.621094 12.566406 17.390625 12.28125 17.390625 Z M 12.28125 17.519531 C 12.496094 17.519531 12.667969 17.691406 12.667969 17.910156 C 12.667969 18.125 12.496094 18.300781 12.28125 18.300781 C 12.0625 18.300781 11.890625 18.125 11.890625 17.910156 C 11.890625 17.691406 12.0625 17.519531 12.28125 17.519531 Z M 12.28125 17.519531 "/>
<path style=" stroke:none;fill-rule:nonzero;fill:rgb(100%,100%,100%);fill-opacity:0.235294;" d="M 3.875 8.265625 C 4.003906 8.34375 3.957031 8.667969 3.769531 8.996094 C 3.582031 9.320312 3.324219 9.523438 3.195312 9.449219 C 3.0625 9.375 3.109375 9.046875 3.296875 8.722656 C 3.484375 8.394531 3.746094 8.191406 3.875 8.265625 Z M 3.875 8.265625 "/>
<path style=" stroke:none;fill-rule:nonzero;fill:rgb(100%,100%,100%);fill-opacity:0.235294;" d="M 8.632812 3.445312 C 8.761719 3.523438 8.714844 3.847656 8.527344 4.175781 C 8.339844 4.5 8.082031 4.703125 7.949219 4.628906 C 7.820312 4.554688 7.867188 4.226562 8.054688 3.902344 C 8.242188 3.574219 8.5 3.371094 8.632812 3.445312 Z M 8.632812 3.445312 "/>
</g>
</svg>
